dist/svgs/core-ui-icons/brand/cib-adguard.svg

<svg xmlns="http://www.w3.org/2000/svg" width="32" height="32" viewBox="0 0 32 32">
  <path d="M16 0c-4.64 0-10.099 1.104-14.76 3.505l-0.724 0.369v0.823c0 4.948 0.093 18.152 14.801 26.891l0.683 0.412 0.683-0.412c14.708-8.739 14.801-21.943 14.801-26.891v-0.812l-0.719-0.375c-4.604-2.412-10.125-3.511-14.765-3.511zM16 2.683c3.969 0 8.781 1.015 12.765 2.932-0.011 5.183-0.557 15.391-12.765 23.104-12.208-7.713-12.76-17.921-12.765-23.104 4.047-1.921 8.796-2.932 12.765-2.932zM22.713 10.104c-0.349 0.011-0.645 0.229-0.812 0.396l-7.172 7.443-2.688-3.219c-1.271-1.473-3.015-0.333-3.416-0.068l6.235 7.24 8.515-11.532c-0.177-0.171-0.416-0.265-0.661-0.26z"/>
</svg>

<svg xmlns="http://www.w3.org/2000/svg" viewBox="0 0 32 32"><path d="M16 0C11.36 0 5.901 1.104 1.24 3.505l-.724.369v.823c0 4.948.093 18.152 14.801 26.891L16 32l.683-.412C31.391 22.849 31.484 9.645 31.484 4.697v-.812l-.719-.375C26.161 1.098 20.64-.001 16-.001zm0 2.683c3.969 0 8.781 1.015 12.765 2.932-.011 5.183-.557 15.391-12.765 23.104C3.792 21.006 3.24 10.798 3.235 5.615 7.282 3.694 12.031 2.683 16 2.683zm6.713 7.421c-.349.011-.645.229-.812.396l-7.172 7.443-2.688-3.219c-1.271-1.473-3.015-.333-3.416-.068l6.235 7.24 8.515-11.532a.927.927 0 00-.661-.26z"/></svg>
